packages/Snapp/src/LeftRotateIcon/index.svg

<?xml version="1.0" encoding="UTF-8"?>
<svg width="24px" height="24px" viewBox="0 0 24 24" version="1.1" xmlns="http://www.w3.org/2000/svg" xmlns:xlink="http://www.w3.org/1999/xlink">
    <title>Icons/24/ LeftRotate_24</title>
    <g id="Icons/24/-LeftRotate_24" stroke="none" stroke-width="1" fill="none" fill-rule="evenodd">
        <rect id="Container" fill-rule="nonzero" x="0" y="0" width="24" height="24"></rect>
        <path d="M15.0279015,5.65 C16.6847557,5.65 18.0279015,6.99314575 18.0279015,8.65 L18.0279015,15.8388387 C18.0279015,17.4956929 16.6847557,18.8388387 15.0279015,18.8388387 L7.83906283,18.8388387 C6.18220858,18.8388387 4.83906283,17.4956929 4.83906283,15.8388387 L4.83906283,8.65 C4.83906283,6.99314575 6.18220858,5.65 7.83906283,5.65 L15.0279015,5.65 Z M13.9893208,7.68858071 L8.87764354,7.68858071 C7.82328174,7.68858071 6.95947841,8.5044585 6.88312927,9.53931836 L6.87764354,9.68858071 L6.87764354,14.800258 C6.87764354,15.8546198 7.69352133,16.7184231 8.72838119,16.7947722 L8.87764354,16.800258 L13.9893208,16.800258 C15.0436826,16.800258 15.9074859,15.9843802 15.9838351,14.9495203 L15.9893208,14.800258 L15.9893208,9.68858071 C15.9893208,8.58401121 15.0938903,7.68858071 13.9893208,7.68858071 Z M16.0279015,2 C19.0757427,2 21.5599266,4.41330385 21.6738216,7.43328004 L21.6779015,7.65 L21.6769015,7.938 L22,7.93813569 C22.5522847,7.93813569 23,8.38585094 23,8.93813569 C23,9.19650291 22.9000007,9.44484303 22.7209576,9.63111484 L21.7619546,10.6288368 C21.3792328,11.0270107 20.7461917,11.0395371 20.3480178,10.6568153 L20.3334955,10.6425695 L20.3334955,10.6425695 L19.3368871,9.64484751 C18.946581,9.25410521 18.9469345,8.62094033 19.3376768,8.23063417 C19.525181,8.04333929 19.7793657,7.93813569 20.0443887,7.93813569 L20.3769015,7.938 L20.3779015,7.65 C20.3779015,5.3182213 18.5432178,3.41495592 16.2386629,3.30501625 L16.0279015,3.3 L15.0279015,3.3 C14.6689164,3.3 14.3779015,3.00898509 14.3779015,2.65 C14.3779015,2.32364992 14.6184097,2.05347354 14.9318493,2.00704767 L15.0279015,2 L16.0279015,2 Z" id="Combined-Shape" fill="#404040"></path>
    </g>
</svg>

<svg viewBox="0 0 24 24" xmlns="http://www.w3.org/2000/svg" fill="currentColor" focusable="false">
  <path d="M15.028 5.65a3 3 0 013 3v7.189a3 3 0 01-3 3H7.839a3 3 0 01-3-3V8.65a3 3 0 013-3h7.189zm-1.039 2.039H8.878a2 2 0 00-1.995 1.85l-.005.15V14.8a2 2 0 001.85 1.995l.15.005h5.111a2 2 0 001.995-1.85l.005-.15V9.69a2 2 0 00-2-2zM16.028 2a5.65 5.65 0 015.646 5.433l.004.217-.001.288H22a1 1 0 01.721 1.693l-.959.998a1 1 0 01-1.414.028l-.015-.014-.996-.998a1 1 0 01.707-1.707h.333V7.65a4.35 4.35 0 00-4.138-4.345l-.211-.005h-1a.65.65 0 01-.096-1.293L15.028 2h1z" fill="none"/>
</svg>
